X:1
T:Title
%%score { ( 1 3 ) | ( 2 4 ) }
L:1/8
Q:1/4=84
M:6/8
K:G
V:1 treble nm="Grand Piano"
V:3 treble 
V:2 treble 
V:4 treble 
V:1
 DBB BAG | Fc[Ec] [Fc]2 D | [FA][FA][FA] [FA][EG][FA] | B6 | Bdd dBd | [Ec][Ec][Ec] [Ec]2 E | %6
w: Lida~Shivers~Leech * * * * *||||||
 DBB BGA | G6 | B<de d>BG | [FA]3 G3 | B<de dB>G | [FA]6 | B<de d>BG |[M:7/8] [Ec]3 [Ge]3 [Ge] | %14
w: ||||||||
[M:29/32] (3:2:19d3/4-d/8-d/32 z3/4 z/8 z/32 z3/2 z/4 z/16 d3/2-d/4-d/16[Ac]3/2-[Ac]/4-[Ac]/16[GB]3/2-[GB]/4-[GB]/16A3/2- z/24 (3:2:2A/4-A/16 | %15
w: |
[M:3/4] G4- G-G/4 z/4 z/ |] %16
w: |
V:2
 [G,B,][G,DG][G,DG] [G,DG][G,CD][K:bass][G,B,D] | [D,A,D][D,F,D][D,G,] [D,A,]2 [D,F,] | %2
 [D,D][D,D][D,D] [D,D][E,B,][D,D] | [G,DG]6 | [G,DG][G,B,G][G,B,G] [G,B,G][G,DG][G,B,=F] | %5
 [C,G,][C,G,][C,G,] [C,G,]2 [C,G,C] | [D,G,B,][D,G,D][D,G,D] [D,G,D][D,B,D][D,CD] | [G,B,D]6 | %8
 [G,DG]<[G,B,G][G,CG] [G,B,G]>[G,DG][K:bass][G,B,D] | [D,C]3[K:treble] [G,B,D]3 | %10
 [G,DG]<[G,B,G][G,CG] [G,B,G][G,DG]>[K:bass][G,B,] | [D,D]6 | %12
 [G,DG]<[G,B,G][G,DG] [G,B,G]>[G,DG][G,B,=F] |[M:7/8][K:bass] [C,C]3 [C,C]3 [C,C] | %14
[M:29/32][K:treble] z/ [G,DG]/4-[G,DG]/4-[G,DG]/4-[G,DG]/4-[G,DG]/4-[G,DG]/4-[G,DG]/-<[G,DG]/ z/4 z/4 z/4[K:bass] z/4 z/4 z/4 z/4 z/4 z/4 z/4 z/4 z/4 z/4 z/4 z/4 z/ | %15
[M:3/4] [G,B,D]4- [G,B,D]-[G,B,D]/4 z/4 z/ |] %16
V:3
 x6 | x6 | x6 | x6 | x6 | x6 | x6 | x6 | x6 | x6 | x6 | x6 | x6 |[M:7/8] x7 | %14
[M:29/32] z/ B/4-B/4-B/4-B/4-B/4-B/4-B/-<B/ z/4 z/4 z/4 z/4 z/4 z/4 z/4 z/4 z/4 z/4 z/4 z/4 z/4 z/4 z/4 z/ | %15
[M:3/4] x6 |] %16
V:4
 x5[K:bass] x | x6 | x6 | x6 | x6 | x6 | x6 | x6 | x5[K:bass] x | x3[K:treble] x3 | %10
 x11/2[K:bass] x/ | x6 | x6 |[M:7/8][K:bass] x7 | %14
[M:29/32][K:treble] (3:2:21[G,B,G]3/4-[G,B,G]/8-[G,B,G]/32 z3/4 z/8 z/32 z3/2 z/4 z/16 [G,B,G]3/2-[G,B,G]/4-[G,B,G]/16[D,D]3/2-[K:bass][D,D]/4-[D,D]/16[D,D]3/2-[D,D]/4-[D,D]/16[D,CD]3/2- [D,CD]/4-[D,CD]/16 | %15
[M:3/4] x6 |] %16

